resources/svg/superscript-o.svg

<svg width="15" height="15" viewBox="0 0 15 15" fill="none" xmlns="http://www.w3.org/2000/svg">
<path d="M12.5 3.5L12.1464 3.14645C12.0034 3.28945 11.9607 3.5045 12.0381 3.69134C12.1155 3.87818 12.2978 4 12.5 4V3.5ZM14.2929 1.70711L13.9393 1.35355V1.35355L14.2929 1.70711ZM15 3H12.5V4H15V3ZM12.8536 3.85355L14.6464 2.06066L13.9393 1.35355L12.1464 3.14645L12.8536 3.85355ZM13.7929 0H13.5V1H13.7929V0ZM13.5 0C12.6716 0 12 0.671573 12 1.5H13C13 1.22386 13.2239 1 13.5 1V0ZM15 1.20711C15 0.54044 14.4596 0 13.7929 0V1C13.9073 1 14 1.09272 14 1.20711H15ZM14.6464 2.06066C14.8728 1.83428 15 1.52725 15 1.20711H14C14 1.26204 13.9782 1.31471 13.9393 1.35355L14.6464 2.06066ZM1.1 1.8L10.1 13.8L10.9 13.2L1.9 1.2L1.1 1.8ZM10.1 1.2L1.1 13.2L1.9 13.8L10.9 1.8L10.1 1.2Z" fill="black"/>
</svg>

<svg viewBox="0 0 15 15" fill="none" xmlns="http://www.w3.org/2000/svg" fill="currentColor"><path d="M12.5 3.5l-.354-.354A.5.5 0 0012.5 4v-.5zm1.793-1.793l-.354-.353.354.353zM15 3h-2.5v1H15V3zm-2.146.854l1.792-1.793-.707-.707-1.793 1.792.708.708zM13.793 0H13.5v1h.293V0zM13.5 0A1.5 1.5 0 0012 1.5h1a.5.5 0 01.5-.5V0zM15 1.207C15 .54 14.46 0 13.793 0v1c.114 0 .207.093.207.207h1zm-.354.854c.227-.227.354-.534.354-.854h-1a.207.207 0 01-.06.147l.706.707zM1.1 1.8l9 12 .8-.6-9-12-.8.6zm9-.6l-9 12 .8.6 9-12-.8-.6z" fill="currentColor"/></svg>
